src/assets/icons/wave.svg

<svg xmlns="http://www.w3.org/2000/svg" viewBox="0 0 1440 320" transform="rotate(180)" xmlns:v="https://vecta.io/nano"><defs><linearGradient id="A" x1="0" x2="0" y1="1" y2="0"><stop stop-color="rgba(61, 169, 252, 1)" offset="0%"/></linearGradient></defs><path fill="url(#A)" d="M0 32l30 26.7C60 85 120 139 180 160s120 11 180-10.7C420 128 480 96 540 106.7c60 10.3 120 64.3 180 90.6C780 224 840 224 900 192s120-96 180-90.7c60 5.7 120 79.7 180 85.4 60 5.3 120-58.7 180-101.4 60-42.3 120-64.3 180-26.6 60 37.3 120 133.3 180 176 60 42.3 120 32.3 180 32 60 .3 120 10.3 180-10.7s120-75 180-117.3C2400 96 2460 64 2520 48s120-16 180 10.7c60 26.3 120 80.3 180 122.6 60 42.7 120 74.7 180 64 60-10.3 120-64.3 180-74.6 60-10.7 120 21.3 180 26.6 60 5.7 120-16.3 180-26.6 60-10.7 120-10.7 180 0 60 10.3 120 32.3 180 32 60 .3 120-21.7 180-10.7s120 53 150 74.7l30 21.3v32h-30-150-180-180-180-180-180-180-180-180-180-180-180-180-180-180-180-180-180-180-180-180-180-180H30 0z"/></svg>

<?xml version="1.0" standalone="no"?>
<svg xmlns:xlink="http://www.w3.org/1999/xlink" id="wave" style="transform:rotate(180deg); transition: 0.3s" viewBox="0 0 1440 320" version="1.1" xmlns="http://www.w3.org/2000/svg"><defs><linearGradient id="sw-gradient-0" x1="0" x2="0" y1="1" y2="0"><stop stop-color="rgba(61, 169, 252, 1)" offset="0%"/><stop stop-color="rgba(61, 169, 252, 1)" offset="100%"/></linearGradient></defs><path style="transform:translate(0, 0px); opacity:1" fill="url(#sw-gradient-0)" d="M0,32L30,58.7C60,85,120,139,180,160C240,181,300,171,360,149.3C420,128,480,96,540,106.7C600,117,660,171,720,197.3C780,224,840,224,900,192C960,160,1020,96,1080,101.3C1140,107,1200,181,1260,186.7C1320,192,1380,128,1440,85.3C1500,43,1560,21,1620,58.7C1680,96,1740,192,1800,234.7C1860,277,1920,267,1980,266.7C2040,267,2100,277,2160,256C2220,235,2280,181,2340,138.7C2400,96,2460,64,2520,48C2580,32,2640,32,2700,58.7C2760,85,2820,139,2880,181.3C2940,224,3000,256,3060,245.3C3120,235,3180,181,3240,170.7C3300,160,3360,192,3420,197.3C3480,203,3540,181,3600,170.7C3660,160,3720,160,3780,170.7C3840,181,3900,203,3960,202.7C4020,203,4080,181,4140,192C4200,203,4260,245,4290,266.7L4320,288L4320,320L4290,320C4260,320,4200,320,4140,320C4080,320,4020,320,3960,320C3900,320,3840,320,3780,320C3720,320,3660,320,3600,320C3540,320,3480,320,3420,320C3360,320,3300,320,3240,320C3180,320,3120,320,3060,320C3000,320,2940,320,2880,320C2820,320,2760,320,2700,320C2640,320,2580,320,2520,320C2460,320,2400,320,2340,320C2280,320,2220,320,2160,320C2100,320,2040,320,1980,320C1920,320,1860,320,1800,320C1740,320,1680,320,1620,320C1560,320,1500,320,1440,320C1380,320,1320,320,1260,320C1200,320,1140,320,1080,320C1020,320,960,320,900,320C840,320,780,320,720,320C660,320,600,320,540,320C480,320,420,320,360,320C300,320,240,320,180,320C120,320,60,320,30,320L0,320Z"/></svg>
